flaticon/constructions/paint-brush-3.svg

<svg xmlns="http://www.w3.org/2000/svg" width="32" height="32" viewBox="0 0 24 24">
    <path d="M 10.398438 20.398438 C 10.398438 21.28125 11.121094 22 12 22 C 12.878906 22 13.601562 21.28125 13.601562 20.398438 C 13.601562 19.519531 12.878906 18.800781 12 18.800781 C 11.121094 18.800781 10.398438 19.519531 10.398438 20.398438 Z M 12 19.601562 C 12.441406 19.601562 12.800781 19.960938 12.800781 20.398438 C 12.800781 20.839844 12.441406 21.199219 12 21.199219 C 11.558594 21.199219 11.199219 20.839844 11.199219 20.398438 C 11.199219 19.960938 11.558594 19.601562 12 19.601562 Z M 12 19.601562"/>
    <path d="M 16 5.199219 L 16 1.199219 C 16 0.519531 15.480469 0 14.800781 0 L 9.199219 0 C 8.519531 0 8 0.519531 8 1.199219 L 8 5.199219 C 7.761719 5.199219 7.601562 5.359375 7.601562 5.601562 L 7.601562 9.199219 C 7.601562 9.441406 7.761719 9.601562 8 9.601562 L 8 12.398438 C 8 12.921875 8.121094 13.441406 8.28125 13.878906 C 8.679688 14.761719 9.359375 16.199219 9.199219 17.160156 C 8.960938 18.71875 8.839844 20.359375 8.839844 20.398438 C 8.839844 22.519531 10.121094 24 12 24 C 13.878906 24 15.160156 22.519531 15.121094 20.398438 C 15.121094 20.359375 15.121094 20.359375 15.121094 20.359375 C 15.121094 20.359375 15 18.71875 14.761719 17.160156 C 14.640625 16.199219 15.28125 14.761719 15.679688 13.878906 C 15.878906 13.441406 16 12.917969 16 12.398438 L 16 9.601562 C 16.238281 9.601562 16.398438 9.441406 16.398438 9.199219 L 16.398438 5.601562 C 16.398438 5.359375 16.238281 5.199219 16 5.199219 Z M 8.398438 6 L 9.601562 6 L 9.601562 6.398438 C 9.601562 7.28125 10.320312 8 11.199219 8 C 12.078125 8 12.800781 7.28125 12.800781 6.398438 L 12.800781 6 L 15.601562 6 L 15.601562 8.800781 L 8.398438 8.800781 Z M 14.398438 3.199219 L 14.398438 0.800781 L 14.800781 0.800781 C 15.039062 0.800781 15.199219 0.960938 15.199219 1.199219 L 15.199219 5.199219 L 12.800781 5.199219 L 12.800781 4.320312 C 12.921875 4.359375 13.039062 4.398438 13.199219 4.398438 C 13.878906 4.398438 14.398438 3.878906 14.398438 3.199219 Z M 13.601562 3.199219 C 13.601562 3.441406 13.441406 3.601562 13.199219 3.601562 C 12.960938 3.601562 12.800781 3.441406 12.800781 3.199219 L 12.800781 2.199219 C 12.800781 1.960938 12.640625 1.800781 12.398438 1.800781 C 12.160156 1.800781 12 1.960938 12 2.199219 L 12 6.398438 C 12 6.839844 11.640625 7.199219 11.199219 7.199219 C 10.761719 7.199219 10.398438 6.839844 10.398438 6.398438 L 10.398438 0.800781 L 13.601562 0.800781 Z M 8.800781 1.199219 C 8.800781 1 9 0.800781 9.199219 0.800781 L 9.601562 0.800781 L 9.601562 5.199219 L 8.800781 5.199219 Z M 15.199219 12.398438 C 15.199219 12.800781 15.121094 13.199219 14.960938 13.558594 C 14.519531 14.480469 13.800781 16.078125 14 17.28125 C 14.238281 18.71875 14.359375 20.238281 14.359375 20.398438 C 14.359375 21.71875 13.71875 23.199219 12 23.199219 C 10.238281 23.199219 9.640625 21.71875 9.640625 20.441406 C 9.640625 20.398438 9.761719 18.800781 10 17.28125 C 10.199219 16.078125 9.480469 14.519531 9.039062 13.558594 C 8.933594 13.320312 8.863281 13.0625 8.828125 12.800781 L 10 12.800781 C 10.238281 12.800781 10.398438 12.640625 10.398438 12.398438 C 10.398438 12.160156 10.238281 12 10 12 L 8.800781 12 L 8.800781 11.199219 L 10.800781 11.199219 C 11.039062 11.199219 11.199219 11.039062 11.199219 10.800781 C 11.199219 10.558594 11.039062 10.398438 10.800781 10.398438 L 8.800781 10.398438 L 8.800781 9.601562 L 15.199219 9.601562 Z M 15.199219 12.398438"/>
</svg>

<svg xmlns="http://www.w3.org/2000/svg" width="32" height="32" viewBox="0 0 24 24">
    <path d="M10.398 20.398c0 .883.723 1.602 1.602 1.602.879 0 1.602-.719 1.602-1.602 0-.878-.723-1.597-1.602-1.597-.879 0-1.602.719-1.602 1.597zM12 19.602c.441 0 .8.359.8.796a.802.802 0 0 1-1.6 0c0-.437.359-.796.8-.796zm0 0"/>
    <path d="M16 5.2v-4c0-.68-.52-1.2-1.2-1.2H9.2C8.52 0 8 .52 8 1.2v4c-.238 0-.398.16-.398.402v3.597c0 .242.16.403.398.403v2.796c0 .524.121 1.043.281 1.48.399.884 1.078 2.321.918 3.282a44.74 44.74 0 0 0-.36 3.238C8.84 22.52 10.122 24 12 24s3.16-1.48 3.121-3.602v-.039s-.121-1.64-.36-3.199c-.12-.96.52-2.398.919-3.281.199-.438.32-.961.32-1.48V9.601c.238 0 .398-.16.398-.403V5.602c0-.243-.16-.403-.398-.403zM8.398 6h1.204v.398c0 .883.718 1.602 1.597 1.602.88 0 1.602-.719 1.602-1.602V6h2.8v2.8H8.399zm6-2.8V.8h.403c.238 0 .398.16.398.4v4h-2.398v-.88A1.178 1.178 0 0 0 14.399 3.2zm-.796 0c0 .241-.16.402-.403.402-.238 0-.398-.16-.398-.403v-1c0-.238-.16-.398-.403-.398-.238 0-.398.16-.398.398v4.2c0 .44-.36.8-.8.8-.438 0-.802-.36-.802-.8V.8h3.204zM8.8 1.2c0-.2.199-.4.398-.4h.403v4.4H8.8zm6.398 11.198c0 .403-.078.801-.238 1.16-.441.922-1.16 2.52-.961 3.723.238 1.438.36 2.957.36 3.117 0 1.32-.641 2.801-2.36 2.801-1.762 0-2.36-1.48-2.36-2.758 0-.043.122-1.64.36-3.16.2-1.203-.52-2.761-.96-3.722a2.8 2.8 0 0 1-.212-.758H10c.238 0 .398-.16.398-.403 0-.238-.16-.398-.398-.398H8.8v-.8h2c.24 0 .4-.16.4-.4 0-.241-.16-.402-.4-.402h-2v-.796h6.4zm0 0"/>
</svg>
